X:1
T: Additional for Flowers of Edinburgh
C:
R:Reel
Q: 232
K:D
M:4/4
L:1/8
|:A2|d3A F2 A2|B2 c2 d2 A2|d3A F2 A2|B2 c2 d2 z2|
d3A F2 A2|B2 c2 d2 A2|d2 A2 F2 A2|B2 c2 d2:|
|:A2|d3e f2 a2|g2 f2 e2 d2|f2 e2 d2 A2|B2 c2 d2 z2|
d3e f2 a2|g2 f2 e2 d2|f2 e2 d2 A2|B2 c2 d2:|
